public/images/poses-lg/Chair.svg

<svg width="800" height="800" fill="none" xmlns="http://www.w3.org/2000/svg"><g clip-path="url(#a)"><path d="M320.366 478.329c16.631 8.134 33.595 15.789 33.595 15.789s22.862-40.264 31.666-49.81c8.802-9.54 10.399-9.015 19.165-12.921 8.768-3.907 15.005-13.438 15.71-26.971.708-13.534-6.55-53.218-2.42-65.127 4.131-11.909 7.061-21.982 26.246-36.512l-5.157-27.682s-68.355 46.316-80.313 66.024c-11.954 19.706-34.31 69.394-42.563 83.275-8.25 13.88-24.293 36.813-24.293 36.813s18.551 12.326 28.364 17.122Z" fill="#fff" stroke="#000" stroke-width="5" stroke-miterlimit="10"/><path d="M320.366 478.329c16.631 8.134 33.595 15.789 33.595 15.789s22.862-40.264 31.666-49.81c8.802-9.54 10.399-9.015 19.165-12.921 8.768-3.907 15.005-13.438 15.71-26.971.708-13.534-6.55-53.218-2.42-65.127 4.131-11.909 7.061-21.982 26.246-36.512l-5.157-27.682s-68.355 46.316-80.313 66.024c-11.954 19.706-34.31 69.394-42.563 83.275-8.25 13.88-24.293 36.813-24.293 36.813s18.551 12.326 28.364 17.122Z" stroke="#000" stroke-width="5" stroke-miterlimit="10"/><path d="M436.75 281.922c-.674-6.417 2.272-10.452 4.081-17.316 2.86-10.902 20.074-13.225 32.098-9.457 12.017 3.768-9.224 61.782-18.456 58.888-5.467-1.713-15.101-10.488-16.924-22.449-1.05-6.878-.799-9.666-.799-9.666Z" fill="#fff" stroke="#000" stroke-width="5" stroke-miterlimit="10"/><path d="M436.75 281.922c-.674-6.417 2.272-10.452 4.081-17.316 2.86-10.902 20.074-13.225 32.098-9.457 12.017 3.768-9.224 61.782-18.456 58.888-5.467-1.713-15.101-10.488-16.924-22.449-1.05-6.878-.799-9.666-.799-9.666ZM404.572 315.874s3.983 32.89 13.005 32.89" stroke="#000" stroke-width="5" stroke-miterlimit="10"/><path d="M320.366 478.329c8.291 3.941 26.276 13.199 33.596 15.789 0 0-6.118 8.281-4.968 14.293 0 0 30.8 12.956 69.395 25.15 38.596 12.194 80.547 37.004 86.067 46.693 5.518 9.684-5.321 52.685-14.655 74.554-9.333 21.869-33.7 71.851-39.352 83.849-5.65 11.994-7.539 19.139-.754 25.735 6.788 6.592 48.534 14.091 52.899 15.19 4.365 1.099 12.125 2.807 11.675 6.537-.449 3.73-4.813 7.848-47.72 6.642-42.904-1.204-38.371 1.32-45.984-2.595-7.613-3.908-6.614-13.566-2.633-36.885 3.98-23.319 18.537-89.334 27.491-112.783 8.96-23.45 12.697-32.016 12.697-32.016s-65.165-5.48-109.801-19.095c-44.635-13.619-65.297-30.34-76.021-53.865-10.723-23.524-2.252-43.476 19.705-74.317.001 0 13.972 10.28 28.363 17.124Z" fill="#fff" stroke="#000" stroke-width="5" stroke-miterlimit="10"/><path d="M320.366 478.329c8.291 3.941 26.276 13.199 33.596 15.789 0 0-6.118 8.281-4.968 14.293 0 0 30.8 12.956 69.395 25.15 38.596 12.194 80.547 37.004 86.067 46.693 5.518 9.684-5.321 52.685-14.655 74.554-9.333 21.869-33.7 71.851-39.352 83.849-5.65 11.994-7.539 19.139-.754 25.735 6.788 6.592 48.534 14.091 52.899 15.19 4.365 1.099 12.125 2.807 11.675 6.537-.449 3.73-4.813 7.848-47.72 6.642-42.904-1.204-38.371 1.32-45.984-2.595-7.613-3.908-6.614-13.566-2.633-36.885 3.98-23.319 18.537-89.334 27.491-112.783 8.96-23.45 12.697-32.016 12.697-32.016s-65.165-5.48-109.801-19.095c-44.635-13.619-65.297-30.34-76.021-53.865-10.723-23.524-2.252-43.476 19.705-74.317.001 0 13.972 10.28 28.363 17.124Z" stroke="#000" stroke-width="5" stroke-miterlimit="10"/><path d="M423.219 723.251s22.02 6.041 33.282 3.029Z" fill="#fff"/><path d="M423.219 723.251s22.02 6.041 33.282 3.029" stroke="#000" stroke-width="5" stroke-miterlimit="10"/><path d="M423.219 723.251s22.02 6.041 33.282 3.029" stroke="#000" stroke-width="5" stroke-miterlimit="10"/><path d="M437.091 288.197c-.272-8.269 2.027-13.045 5.875-13.103 3.844-.056 9.108 2.373 14.272.957 5.161-1.416 3.896-13.562 7.64-17.412 3.747-3.846 11.197-1.313 11.191 2.733-.005 4.05 3.083.229 3.492-4.252.379-4.106 2.222-24.042-22.975-30.366-20.353-5.105-33.477-2.224-45.515 15.791-12.038 18.018-4.756 32.54-23.442 38.63-23.115 7.527-30.099-14.64-60.464-3.708-11.602 4.179-22.216 25.151-23.079 40.387-.926 16.37 7.564 35.726 14.879 41.906 17.612 14.88 24.99 9.407 24.99 9.407l14.905-28.635s52.109-42.376 64.415-50.156c12.308-7.782 13.816-2.179 13.816-2.179Z" fill="#000" stroke="#000" stroke-width="5" stroke-miterlimit="10"/><path d="M358.86 340.531c-1.821 3.529-7.217 12.129-8.189 15.776-.971 3.646-1.404 20.249 8.802 27.743 10.209 7.495 27.874-.653 33.383-11.943 5.504-11.285 5.009-15.096 7.06-20.096 2.054-5.001 22.661-41.913 35.666-69.416 13.003-27.503 25.29-69.803 28.585-96.526 3.295-26.722 7.138-55.472 8.761-66.404 1.617-10.931 7.667-44.433 2.847-56.43-4.823-11.993-14.509-11.376-17.788 5.092-3.28 16.469-1.153 34.992-3.435 52.151-2.273 17.155-13.007 64.779-20.293 85.427-7.288 20.65-3.844 20.083-28.341 66.199-24.496 46.116-47.058 68.427-47.058 68.427Z" fill="#fff" stroke="#000" stroke-width="5" stroke-miterlimit="10"/><path d="M358.86 340.531c-1.821 3.529-7.217 12.129-8.189 15.776-.971 3.646-1.404 20.249 8.802 27.743 10.209 7.495 27.874-.653 33.383-11.943 5.504-11.285 5.009-15.096 7.06-20.096 2.054-5.001 22.661-41.913 35.666-69.416 13.003-27.503 25.29-69.803 28.585-96.526 3.295-26.722 7.138-55.472 8.761-66.404 1.617-10.931 7.667-44.433 2.847-56.43-4.823-11.993-14.509-11.376-17.788 5.092-3.28 16.469-1.153 34.992-3.435 52.151-2.273 17.155-13.007 64.779-20.293 85.427-7.288 20.65-3.844 20.083-28.341 66.199-24.496 46.116-47.058 68.427-47.058 68.427Z" stroke="#000" stroke-width="5" stroke-miterlimit="10"/></g><defs><clipPath id="a"><path fill="#fff" d="M0 0h800v800H0z"/></clipPath></defs></svg>

<svg width="800" height="800" viewBox="0 0 800 800" fill="none" xmlns="http://www.w3.org/2000/svg">
<g clip-path="url(#clip0_298_12113)">
<path d="M320.366 478.329C336.997 486.463 353.961 494.118 353.961 494.118C353.961 494.118 376.823 453.854 385.627 444.308C394.429 434.768 396.026 435.293 404.792 431.387C413.56 427.48 419.797 417.949 420.502 404.416C421.21 390.882 413.952 351.198 418.082 339.289C422.213 327.38 425.143 317.307 444.328 302.777L439.171 275.095C439.171 275.095 370.816 321.411 358.858 341.119C346.904 360.825 324.548 410.513 316.295 424.394C308.045 438.274 292.002 461.207 292.002 461.207C292.002 461.207 310.553 473.533 320.366 478.329Z" fill="white" stroke="black" stroke-width="5" stroke-miterlimit="10"/>
<path d="M320.366 478.329C336.997 486.463 353.961 494.118 353.961 494.118C353.961 494.118 376.823 453.854 385.627 444.308C394.429 434.768 396.026 435.293 404.792 431.387C413.56 427.48 419.797 417.949 420.502 404.416C421.21 390.882 413.952 351.198 418.082 339.289C422.213 327.38 425.143 317.307 444.328 302.777L439.171 275.095C439.171 275.095 370.816 321.411 358.858 341.119C346.904 360.825 324.548 410.513 316.295 424.394C308.045 438.274 292.002 461.207 292.002 461.207C292.002 461.207 310.553 473.533 320.366 478.329Z" stroke="black" stroke-width="5" stroke-miterlimit="10"/>
<path d="M436.75 281.922C436.076 275.505 439.022 271.47 440.831 264.606C443.691 253.704 460.905 251.381 472.929 255.149C484.946 258.917 463.705 316.931 454.473 314.037C449.006 312.324 439.372 303.549 437.549 291.588C436.499 284.71 436.75 281.922 436.75 281.922Z" fill="white" stroke="black" stroke-width="5" stroke-miterlimit="10"/>
<path d="M436.75 281.922C436.076 275.505 439.022 271.47 440.831 264.606C443.691 253.704 460.905 251.381 472.929 255.149C484.946 258.917 463.705 316.931 454.473 314.037C449.006 312.324 439.372 303.549 437.549 291.588C436.499 284.71 436.75 281.922 436.75 281.922Z" stroke="black" stroke-width="5" stroke-miterlimit="10"/>
<path d="M404.572 315.874C404.572 315.874 408.555 348.764 417.577 348.764" stroke="black" stroke-width="5" stroke-miterlimit="10"/>
<path d="M320.366 478.329C328.657 482.27 346.642 491.528 353.962 494.118C353.962 494.118 347.844 502.399 348.994 508.411C348.994 508.411 379.794 521.367 418.389 533.561C456.985 545.755 498.936 570.565 504.456 580.254C509.974 589.938 499.135 632.939 489.801 654.808C480.468 676.677 456.101 726.659 450.449 738.657C444.799 750.651 442.91 757.796 449.695 764.392C456.483 770.984 498.229 778.483 502.594 779.582C506.959 780.681 514.719 782.389 514.269 786.119C513.82 789.849 509.456 793.967 466.549 792.761C423.645 791.557 428.178 794.081 420.565 790.166C412.952 786.258 413.951 776.6 417.932 753.281C421.912 729.962 436.469 663.947 445.423 640.498C454.383 617.048 458.12 608.482 458.12 608.482C458.12 608.482 392.955 603.002 348.319 589.387C303.684 575.768 283.022 559.047 272.298 535.522C261.575 511.998 270.046 492.046 292.003 461.205C292.004 461.205 305.975 471.485 320.366 478.329Z" fill="white" stroke="black" stroke-width="5" stroke-miterlimit="10"/>
<path d="M320.366 478.329C328.657 482.27 346.642 491.528 353.962 494.118C353.962 494.118 347.844 502.399 348.994 508.411C348.994 508.411 379.794 521.367 418.389 533.561C456.985 545.755 498.936 570.565 504.456 580.254C509.974 589.938 499.135 632.939 489.801 654.808C480.468 676.677 456.101 726.659 450.449 738.657C444.799 750.651 442.91 757.796 449.695 764.392C456.483 770.984 498.229 778.483 502.594 779.582C506.959 780.681 514.719 782.389 514.269 786.119C513.82 789.849 509.456 793.967 466.549 792.761C423.645 791.557 428.178 794.081 420.565 790.166C412.952 786.258 413.951 776.6 417.932 753.281C421.912 729.962 436.469 663.947 445.423 640.498C454.383 617.048 458.12 608.482 458.12 608.482C458.12 608.482 392.955 603.002 348.319 589.387C303.684 575.768 283.022 559.047 272.298 535.522C261.575 511.998 270.046 492.046 292.003 461.205C292.004 461.205 305.975 471.485 320.366 478.329Z" stroke="black" stroke-width="5" stroke-miterlimit="10"/>
<path d="M423.219 723.251C423.219 723.251 445.239 729.292 456.501 726.28Z" fill="white"/>
<path d="M423.219 723.251C423.219 723.251 445.239 729.292 456.501 726.28" stroke="black" stroke-width="5" stroke-miterlimit="10"/>
<path d="M423.219 723.251C423.219 723.251 445.239 729.292 456.501 726.28" stroke="black" stroke-width="5" stroke-miterlimit="10"/>
<path d="M437.091 288.197C436.819 279.928 439.118 275.152 442.966 275.094C446.81 275.038 452.074 277.467 457.238 276.051C462.399 274.635 461.134 262.489 464.878 258.639C468.625 254.793 476.075 257.326 476.069 261.372C476.064 265.422 479.152 261.601 479.561 257.12C479.94 253.014 481.783 233.078 456.586 226.754C436.233 221.649 423.109 224.53 411.071 242.545C399.033 260.563 406.315 275.085 387.629 281.175C364.514 288.702 357.53 266.535 327.165 277.467C315.563 281.646 304.949 302.618 304.086 317.854C303.16 334.224 311.65 353.58 318.965 359.76C336.577 374.64 343.955 369.167 343.955 369.167L358.86 340.532C358.86 340.532 410.969 298.156 423.275 290.376C435.583 282.594 437.091 288.197 437.091 288.197Z" fill="black" stroke="black" stroke-width="5" stroke-miterlimit="10"/>
<path d="M358.86 340.531C357.039 344.06 351.643 352.66 350.671 356.307C349.7 359.953 349.267 376.556 359.473 384.05C369.682 391.545 387.347 383.397 392.856 372.107C398.36 360.822 397.865 357.011 399.916 352.011C401.97 347.01 422.577 310.098 435.582 282.595C448.585 255.092 460.872 212.792 464.167 186.069C467.462 159.347 471.305 130.597 472.928 119.665C474.545 108.734 480.595 75.232 475.775 63.2345C470.952 51.2417 461.266 51.8586 457.987 68.327C454.707 84.7955 456.834 103.319 454.552 120.478C452.279 137.633 441.545 185.257 434.259 205.905C426.971 226.555 430.415 225.988 405.918 272.104C381.422 318.22 358.86 340.531 358.86 340.531Z" fill="white" stroke="black" stroke-width="5" stroke-miterlimit="10"/>
<path d="M358.86 340.531C357.039 344.06 351.643 352.66 350.671 356.307C349.7 359.953 349.267 376.556 359.473 384.05C369.682 391.545 387.347 383.397 392.856 372.107C398.36 360.822 397.865 357.011 399.916 352.011C401.97 347.01 422.577 310.098 435.582 282.595C448.585 255.092 460.872 212.792 464.167 186.069C467.462 159.347 471.305 130.597 472.928 119.665C474.545 108.734 480.595 75.232 475.775 63.2345C470.952 51.2417 461.266 51.8586 457.987 68.327C454.707 84.7955 456.834 103.319 454.552 120.478C452.279 137.633 441.545 185.257 434.259 205.905C426.971 226.555 430.415 225.988 405.918 272.104C381.422 318.22 358.86 340.531 358.86 340.531Z" stroke="black" stroke-width="5" stroke-miterlimit="10"/>
</g>
<defs>
<clipPath id="clip0_298_12113">
<rect width="800" height="800" fill="white"/>
</clipPath>
</defs>
</svg>
